X: 83
T:Kildevil Air
M:4/4
L:1/8
Q:50
C:Gerry Strong
R:Air
Z:Gerry Strong
K:G
E|:E3-E E F/2 E/2 D/2 B/2 ^c/2 d/2|e4-eBef|g6 fe|f6 ed|e2 B6-|B-B2-B3 Bc
A|B6 AG|A6 z F|1F2-F3 F G/2F/2E/2D/2|E8-|E6-E E:|2F4-F F G/2F/2E/2D/2|E8
-|E2-E3 B ef|
|:g4-g a b/2a/2g/2e/2|f6 ef|g4-g a b/2g/2e/2d/2|e6 f e/2 d/2|eB-B6-|B4-B
 BcA|B6 AG|A6 z F|F4-F F G/2F/2E/2D/2|1E8-|E2-E3 Bef:|2E8||

